archdroid-icon-theme/Archdroid-Brown/status/scalable/microphone-sensitivity-none-symbolic.svg

<svg fill="#795548" height="48" viewBox="0 0 48 48" width="48" xmlns="http://www.w3.org/2000/svg"><path d="m38 22h-3.4c0 1.49-.31 2.87-.87 4.1l2.46 2.46c1.14-1.95 1.81-4.18 1.81-6.56zm-8.03.33c0-.11.03-.22.03-.33v-12c0-3.32-2.69-6-6-6s-6 2.68-6 6v.37zm-21.42-16.33-2.55 2.55 12.02 12.02v1.44c0 3.31 2.67 6 5.98 6 .45 0 .88-.06 1.3-.15l3.32 3.32c-1.43.66-3 1.03-4.62 1.03-5.52 0-10.6-4.2-10.6-10.2h-3.4c0 6.83 5.44 12.47 12 13.44v6.55h4v-6.56c1.81-.27 3.53-.9 5.08-1.81l8.37 8.37 2.55-2.54z" fill="#795548"/></svg>

<svg fill="#795548" xmlns="http://www.w3.org/2000/svg" width="48" height="48" viewBox="0 0 48 48"><path d="M38 22h-3.4c0 1.49-.31 2.87-.87 4.1l2.46 2.46C37.33 26.61 38 24.38 38 22zm-8.03.33c0-.11.03-.22.03-.33V10c0-3.32-2.69-6-6-6s-6 2.68-6 6v.37l11.97 11.96zM8.55 6L6 8.55l12.02 12.02v1.44c0 3.31 2.67 6 5.98 6 .45 0 .88-.06 1.3-.15l3.32 3.32c-1.43.66-3 1.03-4.62 1.03-5.52 0-10.6-4.2-10.6-10.2H10c0 6.83 5.44 12.47 12 13.44V42h4v-6.56c1.81-.27 3.53-.9 5.08-1.81L39.45 42 42 39.46 8.55 6z"/></svg>
